X: 6
T: The White Petticoat
R: jig
M: 6/8
L: 1/8
K: Emin
|: "Em" Bed cBA | "Em"GFE BEG | "Bm"FBB cBB| "Bm"eBB cBA|
| "Em" Bed cBA | "Em"GFE BEG | "Bm"FBB cBA |1 "Em" GEE E2 A:|2 "Em" GEE E2 g||
|: "C" gec Gce| "C" gaf gec | "Am" cBA EAc | "Em" Be^d eBG |
|"Bm" FBB GBB|"Bm" FBA GFE | "Em" BEG "Am" cBA|1 "Em"GEE E2 g:|2 "Em" GEE E2 A||


Tune 332	Setting 13114

